X: 167
T: Cumberland Gap
C:Traditional
B: steve song book
B: steve set list
M:4/4
L:1/8
Q: 1/4=120
K:D
V:1 
"D"FED2D2D2|"D"F2A2"G"B4|"D"AAAB AFDE|"D"FDE2"G"D2F2|
"D"FED2D2D2|"D"FFA2"G"B2BB|"D"A2ABA2DE|"A"F2E2"D"D4||
"D"FED2D4|"G"B,B,D2D4|"D"FFFFA2A2|"D"FFFD "A"E4|
"D"FED2D4|FFA2"G"B4-|B8|B6B2|
"D"AAAB AFDE|"A"FDE2 "D"D2||
|:DE | "D"F2FG FEDE | F2A2 "Bm (G)"B2AB | "D"d2dd BdAG |[1 "A"FDEF "D"D2 :|[2 "A"FDEF "D"D4 ||
|:"A"e2ef "D"dBAd | fedA "Bm (G)"B4 | "D"d2dd BdAG |[1 "A"FEDF E4 :| [2 "A"FEDE "D"D4 ||
W: 1. Me and my wife and my wifes pap,
W: Goin to Kentucky through the Cumberland Gap.
W: Our two little kids named Holly and Hap,
W: And an old hound dog barkin yap yap yap.
W: 
W: Refrain
W: Cumberland Gap, Cumberland Gap,
W: Everything I own is strapped upon my back.
W: Cumberland Gap, Cumberland Gap, Hey!
W: Walking to Kentucky through the Cumberland Gap!
W: 
W: 2. Daniel Boone on Pinnacle Rock
W: Had a coonskin hat and old flintlock.
W: Huntin for his supper, hed never fail
W: To shoot him a squirrel or a turkey or a quail. Refrain
W: 
W: 3. The Cumberland Gap is a mighty fine place,
W: Three kinds of water for to wash your face.
W: The spring and the creek and the river too,
W: Three kinds of water for to cook your stew. Refrain
W: 
W: 4. This Wilderness Road is rugged and long,
W: Fit for only the brave and the strong.
W: Should trouble find us and things go wrong,
W: Well all pull together and sing this song. Refrain
% abcbook-tune_id 6298c2459f5c08cb12ce92c6
% abcbook-link-0 https://www.youtube.com/watch?v=QkCC88XfuE8
% abcbook-link-title-0 Cumberland Gap - Traditional Banjo Song
% abcbook-link-1 https://www.youtube.com/watch?v=34WAH3vPdX4
% abcbook-link-title-1 Woody Guthrie- Cumberland Gap

% abcbook-boost 0
% abcbook-tablature 
% abcbook-transpose 
% abcbook-lastupdated 1667575722604
% abcbook-soundfonts 
% abcbook-repeats 1


